.local/share/icons/Gruvbox-Plus-Dark/mimetypes/scalable/application-x-glabels.svg

<svg width="256" height="256" fill="none" version="1.1" viewBox="0 0 256 256" xmlns="http://www.w3.org/2000/svg">
  <path d="m55.08 15h100.5l60.4 60.15 2e-3 148.9c0 8.911-7.262 16.13-16.17 16.13h-144.8c-8.91 0-16.08-7.174-16.08-16.08v-193c0-8.91 7.173-16.08 16.08-16.08h1e-4z" fill="#ebdbb2"/>
  <path d="m155.6 22.98h-100.5c-4.504 0-8.105 3.601-8.105 8.105v193c0 4.504 3.601 8.105 8.105 8.105h144.8c4.533 0 8.194-3.674 8.194-8.149v-148.9l-52.42-52.17zm-1e-3 -7.979h-100.5c-8.91 0-16.08 7.173-16.08 16.08v193c0 8.91 7.173 16.08 16.08 16.08h144.8c8.911 0 16.17-7.218 16.17-16.13l-2e-3 -148.9-60.4-60.15z" clip-rule="evenodd" fill="url(#paint0_linear)" fill-rule="evenodd"/>
  <path d="m81.72 107.3 6.811 64.76c1.048 9.963 3.536 9.699 13.5 8.652l34.87-3.668c9.961-1.049 12.45-1.309 11.4-11.27l-6.812-64.76-28.9-23.4c-1.376-1.114-2.685-1.604-3.932-1.472-1.245 0.1307-2.423 0.8815-3.536 2.258l-23.4 28.9z" fill="url(#paint1_linear)"/>
  <path d="m99.81 116.7 38.28 52.68c5.89 8.104 7.912 6.632 16.02 0.743l28.37-20.61c8.103-5.889 10.13-7.359 4.239-15.46l-38.28-52.67-36.73-5.815c-1.749-0.2772-3.127-0.0467-4.141 0.6906-1.013 0.7358-1.658 1.975-1.934 3.724l-5.815 36.73z" fill="url(#paint2_linear)"/>
  <path d="m147.4 108c0.278 0.383 0.789 0.465 1.16 0.196 0.383-0.278 0.477-0.799 0.199-1.182-0.269-0.371-0.793-0.443-1.176-0.165-0.371 0.269-0.452 0.781-0.183 1.151zm-7.85 4.884 0.78 1.075 6.315-4.581-0.78-1.075-6.315 4.581zm-5.843-8.054-3.864-5.326 8.651-6.276 0.78 1.075-7.613 5.523 3.084 4.251-1.038 0.753zm4.922 5.381c-0.81-0.129-1.676-0.594-2.295-1.447-1.255-1.73-0.651-3.81 1.277-5.208 2.089-1.515 4.116-1.269 5.335 0.411 1.031 1.422 0.965 3.28-1.111 4.787-0.198 0.143-0.479 0.328-0.744 0.483l-3.102-4.276c-1.099 0.929-1.351 2.168-0.66 3.119 0.349 0.482 0.872 0.839 1.554 0.947l-0.254 1.184zm3.366-5.553c-0.664-0.915-1.758-1.253-3.1-0.373l2.349 3.238c1.424-1.053 1.235-2.198 0.751-2.865zm3.184 15.99-0.735-1.014 0.581-0.421c-0.7-0.133-1.482-0.509-2.029-1.263-0.933-1.285-0.879-2.72 0.529-3.742 1.459-1.058 2.914-0.378 3.801 0.846 0.404 0.556 0.696 1.192 0.776 1.927l0.445-0.323c1.112-0.807 1.018-1.587 0.426-2.403-0.511-0.704-1.292-1.156-1.966-1.384l0.678-0.963c0.701 0.264 1.636 0.85 2.326 1.802 0.717 0.988 1.298 2.491-0.642 3.899l-4.19 3.039zm-0.918-5.426c-0.705 0.511-0.825 1.333-0.197 2.198 0.511 0.705 1.331 0.977 2.011 1.031l1.088-0.789c-0.043-0.553-0.279-1.269-0.656-1.788-0.592-0.815-1.443-1.235-2.246-0.652zm-20.67-0.519c-2.138 1.551-5.164 2.293-7.145-0.438-1.973-2.719-0.327-5.365 1.811-6.916s5.164-2.294 7.136 0.425c1.982 2.731 0.336 5.378-1.802 6.929zm-4.527-6.241c-1.693 1.228-2.977 3.177-1.605 5.068 1.381 1.903 3.759 1.178 5.316 0.048 1.693-1.228 2.998-3.174 1.617-5.078-1.371-1.89-3.759-1.177-5.328-0.038zm2.331 12.31-0.78-1.075 6.315-4.581 0.78 1.075-0.828 0.6c0.836-0.172 1.55 0.083 2.061 0.788 0.296 0.407 0.411 0.852 0.387 1.209l-1.13 0.575c-7e-3 -0.297-0.069-0.667-0.383-1.1-0.439-0.605-1.429-1.113-2.863-0.073l-3.559 2.582zm1.554 7.524c1.372 1.684 2.927 2.423 4.978 0.935l6.056-4.393-0.78-1.076-0.519 0.377c0.092-0.444 0.129-1.226-0.489-2.078-1.121-1.545-3.125-1.733-5.201-0.227-2.2 1.596-2.451 3.59-1.438 4.986 0.556 0.766 1.195 1.076 1.95 1.075l-0.767 0.556c-0.828 0.601-1.799 0.589-3.326-1.283l-0.464 1.128zm3.769-1.98c-0.735-1.013-0.381-2.345 1.065-3.394 1.483-1.076 2.741-1.083 3.557 0.041 0.35 0.482 0.477 1.333 0.182 2.019l-2.892 2.098c-0.789 0.082-1.535-0.245-1.912-0.764zm5.795 9.782-0.735-1.013 0.581-0.421c-0.7-0.134-1.482-0.51-2.029-1.263-0.933-1.286-0.879-2.72 0.53-3.742 1.458-1.058 2.913-0.378 3.8 0.845 0.404 0.556 0.696 1.193 0.776 1.927l0.445-0.323c1.112-0.806 1.018-1.587 0.426-2.402-0.511-0.705-1.292-1.157-1.966-1.384l0.678-0.964c0.701 0.265 1.636 0.851 2.326 1.802 0.717 0.989 1.298 2.492-0.642 3.899l-4.19 3.039zm-0.918-5.426c-0.705 0.511-0.825 1.334-0.197 2.199 0.511 0.704 1.331 0.977 2.011 1.031l1.088-0.789c-0.043-0.554-0.279-1.269-0.656-1.788-0.592-0.816-1.443-1.236-2.246-0.653zm5.099 11.19 0.78 1.075 3.634-2.636c2.039-1.479 2.229-2.881 1.189-4.314-0.493-0.68-1.144-1.057-1.974-1.058l0.642-0.466-0.78-1.075-6.315 4.581 0.78 1.075 3.844-2.788c1.223-0.888 2.088-0.553 2.689 0.275 0.565 0.778 0.529 1.691-0.67 2.561l-3.819 2.77zm5.59 7.705-0.735-1.013 0.581-0.422c-0.701-0.133-1.483-0.509-2.029-1.263-0.933-1.285-0.879-2.719 0.529-3.742 1.459-1.057 2.914-0.378 3.801 0.846 0.404 0.556 0.696 1.193 0.776 1.927l0.445-0.323c1.112-0.807 1.018-1.587 0.426-2.403-0.511-0.704-1.292-1.156-1.966-1.384l0.678-0.963c0.701 0.264 1.635 0.85 2.326 1.802 0.717 0.989 1.298 2.491-0.642 3.899l-4.19 3.039zm-0.918-5.426c-0.705 0.511-0.825 1.334-0.197 2.199 0.511 0.704 1.331 0.977 2.011 1.03l1.088-0.789c-0.043-0.553-0.279-1.268-0.656-1.787-0.592-0.816-1.443-1.236-2.246-0.653z" clip-rule="evenodd" fill="#ebdbb2" fill-rule="evenodd"/>
  <path d="m155.6 17v44.23c0 8.91 7.259 15.93 16.17 15.93l44.23-0.0112v-2l-60.4-58.15z" fill="#282828" opacity=".25"/>
  <path d="m155.6 15v44.23c0 8.91 7.259 15.93 16.17 15.93l44.23-0.0112-60.4-60.15z" fill="url(#paint3_linear)"/>
  <defs>
    <linearGradient id="paint0_linear" x1="39" x2="39" y1="15" y2="240.2" gradientUnits="userSpaceOnUse">
      <stop stop-color="#b16286" offset="1e-7"/>
      <stop stop-color="#8f3f71" offset="1"/>
    </linearGradient>
    <linearGradient id="paint1_linear" x1="144" x2="84.16" y1="124.4" y2="130.6" gradientUnits="userSpaceOnUse">
      <stop stop-color="#b8bb26" offset="0"/>
      <stop stop-color="#b8bb26" offset=".1"/>
      <stop stop-color="#98971a" offset="1"/>
    </linearGradient>
    <linearGradient id="paint2_linear" x1="131.9" x2="83.25" y1="58.58" y2="93.91" gradientUnits="userSpaceOnUse">
      <stop stop-color="#b16286" offset="1e-7"/>
      <stop stop-color="#8f3f71" offset="1"/>
    </linearGradient>
    <linearGradient id="paint3_linear" x1="155.6" x2="155.6" y1="15" y2="75.16" gradientUnits="userSpaceOnUse">
      <stop stop-color="#b16286" offset="1e-7"/>
      <stop stop-color="#8f3f71" offset="1"/>
    </linearGradient>
  </defs>
</svg>

<svg width="256" height="256" viewBox="0 0 256 256" fill="none" xmlns="http://www.w3.org/2000/svg">
<g opacity="0.4" filter="url(#filter0_f)">
<path d="M55.0839 15.5636H155.608L216.009 75.7129L216.011 224.609C216.011 233.52 208.749 240.737 199.838 240.737H55.0838C46.1734 240.737 39 233.564 39 224.654V31.6474C39 22.737 46.1734 15.5636 55.0838 15.5636H55.0839Z" fill="#282828"/>
</g>
<path d="M55.0839 15H155.608L216.009 75.1493L216.011 224.045C216.011 232.956 208.749 240.174 199.838 240.174H55.0838C46.1734 240.174 39 233 39 224.09V31.0838C39 22.1734 46.1734 15 55.0838 15H55.0839Z" fill="#ebdbb2"/>
<path fill-rule="evenodd" clip-rule="evenodd" d="M155.609 22.9787H55.0839C50.58 22.9787 46.9787 26.5799 46.9787 31.0838V224.09C46.9787 228.594 50.5799 232.195 55.0838 232.195H199.838C204.371 232.195 208.032 228.521 208.032 224.046V75.1493L155.609 22.9787ZM155.608 15H55.0839C46.1735 15 39 22.1734 39 31.0838V224.09C39 233 46.1734 240.174 55.0838 240.174H199.838C208.749 240.174 216.011 232.956 216.011 224.045L216.009 75.1493L155.608 15Z" fill="url(#paint0_linear)"/>
<path d="M81.722 107.294L88.5334 172.051C89.5818 182.014 92.0695 181.75 102.033 180.703L136.906 177.035C146.867 175.986 149.357 175.726 148.309 165.763L141.497 101.007L112.593 77.6041C111.217 76.4897 109.908 76 108.661 76.1317C107.416 76.2624 106.238 77.0132 105.125 78.3898L81.722 107.294Z" fill="url(#paint1_linear)"/>
<path d="M99.8072 116.733L138.084 169.408C143.974 177.512 145.996 176.04 154.101 170.151L182.468 149.538C190.571 143.649 192.597 142.179 186.707 134.075L148.43 81.4004L111.697 75.5855C109.948 75.3083 108.57 75.5388 107.556 76.2761C106.543 77.0119 105.898 78.2511 105.622 80L99.8072 116.733Z" fill="url(#paint2_linear)"/>
<path fill-rule="evenodd" clip-rule="evenodd" d="M147.446 107.994C147.724 108.377 148.235 108.459 148.606 108.19C148.989 107.912 149.083 107.391 148.805 107.008C148.536 106.637 148.012 106.565 147.629 106.843C147.258 107.112 147.177 107.624 147.446 107.994ZM139.596 112.878L140.376 113.953L146.691 109.372L145.911 108.297L139.596 112.878ZM133.753 104.824L129.889 99.4977L138.54 93.222L139.32 94.2972L131.707 99.8198L134.791 104.071L133.753 104.824ZM138.675 110.205C137.865 110.076 136.999 109.611 136.38 108.758C135.125 107.028 135.729 104.948 137.657 103.55C139.746 102.035 141.773 102.281 142.992 103.961C144.023 105.383 143.957 107.241 141.881 108.748C141.683 108.891 141.402 109.076 141.137 109.231L138.035 104.955C136.936 105.884 136.684 107.123 137.375 108.074C137.724 108.556 138.247 108.913 138.929 109.021L138.675 110.205ZM142.041 104.652C141.377 103.737 140.283 103.399 138.941 104.279L141.29 107.517C142.714 106.464 142.525 105.319 142.041 104.652ZM145.225 120.638L144.49 119.624L145.071 119.203C144.371 119.07 143.589 118.694 143.042 117.94C142.109 116.655 142.163 115.22 143.571 114.198C145.03 113.14 146.485 113.82 147.372 115.044C147.776 115.6 148.068 116.236 148.148 116.971L148.593 116.648C149.705 115.841 149.611 115.061 149.019 114.245C148.508 113.541 147.727 113.089 147.053 112.861L147.731 111.898C148.432 112.162 149.367 112.748 150.057 113.7C150.774 114.688 151.355 116.191 149.415 117.599L145.225 120.638ZM144.307 115.212C143.602 115.723 143.482 116.545 144.11 117.41C144.621 118.115 145.441 118.387 146.121 118.441L147.209 117.652C147.166 117.099 146.93 116.383 146.553 115.864C145.961 115.049 145.11 114.629 144.307 115.212ZM123.634 114.693C121.496 116.244 118.47 116.986 116.489 114.255C114.516 111.536 116.162 108.89 118.3 107.339C120.438 105.788 123.464 105.045 125.436 107.764C127.418 110.495 125.772 113.142 123.634 114.693ZM119.107 108.452C117.414 109.68 116.13 111.629 117.502 113.52C118.883 115.423 121.261 114.698 122.818 113.568C124.511 112.34 125.816 110.394 124.435 108.49C123.064 106.6 120.676 107.313 119.107 108.452ZM121.438 120.765L120.658 119.69L126.973 115.109L127.753 116.184L126.925 116.784C127.761 116.612 128.475 116.867 128.986 117.572C129.282 117.979 129.397 118.424 129.373 118.781L128.243 119.356C128.236 119.059 128.174 118.689 127.86 118.256C127.421 117.651 126.431 117.143 124.997 118.183L121.438 120.765ZM122.992 128.289C124.364 129.973 125.919 130.712 127.97 129.224L134.026 124.831L133.246 123.755L132.727 124.132C132.819 123.688 132.856 122.906 132.238 122.054C131.117 120.509 129.113 120.321 127.037 121.827C124.837 123.423 124.586 125.417 125.599 126.813C126.155 127.579 126.794 127.889 127.549 127.888L126.782 128.444C125.954 129.045 124.983 129.033 123.456 127.161L122.992 128.289ZM126.761 126.309C126.026 125.296 126.38 123.964 127.826 122.915C129.309 121.839 130.567 121.832 131.383 122.956C131.733 123.438 131.86 124.289 131.565 124.975L128.673 127.073C127.884 127.155 127.138 126.828 126.761 126.309ZM132.556 136.091L131.821 135.078L132.402 134.657C131.702 134.523 130.92 134.147 130.373 133.394C129.44 132.108 129.494 130.674 130.903 129.652C132.361 128.594 133.816 129.274 134.703 130.497C135.107 131.053 135.399 131.69 135.479 132.424L135.924 132.101C137.036 131.295 136.942 130.514 136.35 129.699C135.839 128.994 135.058 128.542 134.384 128.315L135.062 127.351C135.763 127.616 136.698 128.202 137.388 129.153C138.105 130.142 138.686 131.645 136.746 133.052L132.556 136.091ZM131.638 130.665C130.933 131.176 130.813 131.999 131.441 132.864C131.952 133.568 132.772 133.841 133.452 133.895L134.54 133.106C134.497 132.552 134.261 131.837 133.884 131.318C133.292 130.502 132.441 130.082 131.638 130.665ZM136.737 141.855L137.517 142.93L141.151 140.294C143.19 138.815 143.38 137.413 142.34 135.98C141.847 135.3 141.196 134.923 140.366 134.922L141.008 134.456L140.228 133.381L133.913 137.962L134.693 139.037L138.537 136.249C139.76 135.361 140.625 135.696 141.226 136.524C141.791 137.302 141.755 138.215 140.556 139.085L136.737 141.855ZM142.327 149.56L141.592 148.547L142.173 148.125C141.472 147.992 140.69 147.616 140.144 146.862C139.211 145.577 139.265 144.143 140.673 143.12C142.132 142.063 143.587 142.742 144.474 143.966C144.878 144.522 145.17 145.159 145.25 145.893L145.695 145.57C146.807 144.763 146.713 143.983 146.121 143.167C145.61 142.463 144.829 142.011 144.155 141.783L144.833 140.82C145.534 141.084 146.468 141.67 147.159 142.622C147.876 143.611 148.457 145.113 146.517 146.521L142.327 149.56ZM141.409 144.134C140.704 144.645 140.584 145.468 141.212 146.333C141.723 147.037 142.543 147.31 143.223 147.363L144.311 146.574C144.268 146.021 144.032 145.306 143.655 144.787C143.063 143.971 142.212 143.551 141.409 144.134Z" fill="#ebdbb2"/>
<path opacity="0.25" d="M155.608 17V61.2306C155.608 70.141 162.867 77.1605 171.777 77.1605L216.009 77.1493V75.1493L155.608 17Z" fill="#282828"/>
<path d="M155.608 15V59.2306C155.608 68.141 162.867 75.1605 171.777 75.1605L216.009 75.1493L155.608 15Z" fill="url(#paint3_linear)"/>
<defs>
<filter id="filter0_f" x="23.8778" y="0.441412" width="207.255" height="255.418" filterUnits="userSpaceOnUse" color-interpolation-filters="sRGB">
<feFlood flood-opacity="0" result="BackgroundImageFix"/>
<feBlend mode="normal" in="SourceGraphic" in2="BackgroundImageFix" result="shape"/>
<feGaussianBlur stdDeviation="7.5611" result="effect1_foregroundBlur"/>
</filter>
<linearGradient id="paint0_linear" x1="39" y1="15" x2="39" y2="240.174" gradientUnits="userSpaceOnUse">
<stop offset="1e-07" stop-color="#b16286"/>
<stop offset="1" stop-color="#8f3f71"/>
</linearGradient>
<linearGradient id="paint1_linear" x1="143.99" y1="124.385" x2="84.1567" y2="130.63" gradientUnits="userSpaceOnUse">
<stop stop-color="#b8bb26"/>
<stop offset="0.1" stop-color="#b8bb26"/>
<stop offset="1" stop-color="#98971a"/>
</linearGradient>
<linearGradient id="paint2_linear" x1="131.943" y1="58.5847" x2="83.2495" y2="93.9092" gradientUnits="userSpaceOnUse">
<stop offset="1e-07" stop-color="#b16286"/>
<stop offset="1" stop-color="#8f3f71"/>
</linearGradient>
<linearGradient id="paint3_linear" x1="155.608" y1="15" x2="155.608" y2="75.1605" gradientUnits="userSpaceOnUse">
<stop offset="1e-07" stop-color="#b16286"/>
<stop offset="1" stop-color="#8f3f71"/>
</linearGradient>
</defs>
</svg>
